build/img/logo.svg

<svg width="276" height="74" viewBox="0 0 276 74" fill="none" xmlns="http://www.w3.org/2000/svg">
<path d="M71.6226 0.5H60.3283C59.9151 0.5 59.6396 0.637736 59.3641 0.913208L0.413208 59.8641C0.137736 60.1396 0 60.4151 0 60.8283V72.1226C0 72.8113 0.550943 73.5 1.37736 73.5H12.6717C13.0849 73.5 13.3604 73.3623 13.6358 73.0868L72.5868 14.1358C72.8623 13.8604 73 13.5849 73 13.1717V1.87736C73 1.05094 72.4491 0.5 71.6226 0.5Z" fill="#5CC773"/>
<path d="M2.34151 29.8377L29.3377 2.84151C30.3019 1.87736 29.6132 0.5 28.5113 0.5H1.37736C0.550943 0.5 0 1.05094 0 1.87736V29.0113C0 30.1132 1.37736 30.8019 2.34151 29.8377Z" fill="#28272D"/>
<path d="M70.6585 44.1613L43.6622 71.1575C42.6981 72.1216 43.3868 73.499 44.4887 73.499H71.6226C72.3113 73.499 73 72.948 73 72.1216V44.9877C73 43.8858 71.6226 43.1971 70.6585 44.1613Z" fill="#28272D"/>
<path d="M100 42.2289L111.156 32.003V31.6931H101.007V27.0449H118.05V32.003L106.895 42.2289V42.6163H118.438V47.187H100V42.2289Z" fill="#5CC773"/>
<path d="M121.457 36.5742H131.063V41.4548H121.457V36.5742Z" fill="#28272D"/>
<path d="M135.328 27.0449H150.822V31.6156H140.596V35.0243H150.357V39.595H140.596V47.187H135.328V27.0449Z" fill="#28272D"/>
<path d="M159.729 27.0449H166.004L174.215 46.0249V47.187H168.793L167.476 43.9332H158.257L156.94 47.187H151.672V46.0249L159.729 27.0449ZM160.116 39.3625H165.539L163.06 33.165H162.595L160.116 39.3625Z" fill="#28272D"/>
<path d="M194.354 31.9254V33.2424H188.931C188.389 32.0029 186.684 31.2282 185.057 31.2282C183.198 31.2282 181.881 31.848 181.881 32.8551C181.881 33.9397 183.74 34.4045 185.522 34.7918C189.163 35.5665 194.509 36.6511 194.509 41.0668C194.509 45.1727 190.635 47.6517 185.677 47.6517C181.339 47.6517 177.698 45.6375 176.148 42.0739V40.757H181.571C182.191 41.9965 183.818 42.7712 185.755 42.7712C187.614 42.7712 189.163 42.3063 189.163 41.1443C189.163 40.1372 187.459 39.6724 185.445 39.285C181.881 38.5878 176.536 37.5032 176.536 32.9326C176.536 29.0591 180.409 26.3477 185.057 26.3477C189.551 26.4251 192.882 28.7492 194.354 31.9254Z" fill="#28272D"/>
<path d="M204.429 27.0449H210.704L218.915 46.0249V47.187H213.492L212.175 43.9332H203.034L201.717 47.187H196.449V46.0249L204.429 27.0449ZM204.816 39.3625H210.239L207.76 33.165H207.295L204.816 39.3625Z" fill="#28272D"/>
<path d="M221.859 27.0449H230.923C237.198 27.0449 242.001 30.7635 242.001 37.1159C242.001 43.4684 237.198 47.187 230.923 47.187H221.781V27.0449H221.859ZM227.127 31.6931V42.6937H231C234.254 42.6937 236.733 40.6795 236.733 37.1934C236.733 33.6298 234.331 31.7706 231 31.7706H227.127V31.6931Z" fill="#28272D"/>
</svg>

<svg width="276" height="74" fill="none" xmlns="http://www.w3.org/2000/svg">
    <path d="M71.623.5H60.328c-.413 0-.688.138-.964.413L.414 59.864c-.276.276-.414.551-.414.964v11.295C0 72.81.55 73.5 1.377 73.5h11.295c.413 0 .688-.138.964-.413l58.95-58.951c.276-.276.414-.551.414-.964V1.877C73 1.051 72.45.5 71.623.5z" fill="#5CC773"/>
    <path d="M2.342 29.838 29.338 2.842C30.302 1.877 29.613.5 28.51.5H1.377C.551.5 0 1.05 0 1.877v27.134c0 1.102 1.377 1.79 2.342.827zM70.659 44.161 43.662 71.157c-.964.965-.275 2.342.827 2.342h27.134c.688 0 1.377-.551 1.377-1.377V44.988c0-1.102-1.377-1.79-2.341-.827z" fill="#28272D"/>
    <path d="m100 42.229 11.156-10.226v-.31h-10.149v-4.648h17.043v4.958l-11.155 10.226v.387h11.543v4.571H100v-4.958z" fill="#5CC773"/>
    <path d="M121.457 36.574h9.606v4.88h-9.606v-4.88zM135.328 27.045h15.494v4.57h-10.226v3.41h9.761v4.57h-9.761v7.592h-5.268V27.045zM159.729 27.045h6.275l8.211 18.98v1.162h-5.422l-1.317-3.254h-9.219l-1.317 3.254h-5.268v-1.162l8.057-18.98zm.387 12.317h5.423l-2.479-6.197h-.465l-2.479 6.197zM194.354 31.925v1.317h-5.423c-.542-1.24-2.247-2.014-3.874-2.014-1.859 0-3.176.62-3.176 1.627 0 1.085 1.859 1.55 3.641 1.937 3.641.774 8.987 1.86 8.987 6.275 0 4.106-3.874 6.585-8.832 6.585-4.338 0-7.979-2.014-9.529-5.578v-1.317h5.423c.62 1.24 2.247 2.014 4.184 2.014 1.859 0 3.408-.465 3.408-1.627 0-1.007-1.704-1.472-3.718-1.859-3.564-.697-8.909-1.782-8.909-6.352 0-3.874 3.873-6.585 8.521-6.585 4.494.077 7.825 2.401 9.297 5.577zM204.429 27.045h6.275l8.211 18.98v1.162h-5.423l-1.317-3.254h-9.141l-1.317 3.254h-5.268v-1.162l7.98-18.98zm.387 12.317h5.423l-2.479-6.197h-.465l-2.479 6.197zM221.859 27.045h9.064c6.275 0 11.078 3.718 11.078 10.07 0 6.353-4.803 10.072-11.078 10.072h-9.142V27.045h.078zm5.268 4.648v11H231c3.254 0 5.733-2.014 5.733-5.5 0-3.563-2.402-5.422-5.733-5.422h-3.873v-.078z" fill="#28272D"/>
</svg>
